icons/githubpages-dark.svg

<svg width="256" height="256" viewBox="0 0 256 256" fill="none" xmlns="http://www.w3.org/2000/svg">
<path d="M196 0H60C26.8629 0 0 26.8629 0 60V196C0 229.137 26.8629 256 60 256H196C229.137 256 256 229.137 256 196V60C256 26.8629 229.137 0 196 0Z" fill="#282828"/>
<g clip-path="url(#clip0_0_1)">
<path fill-rule="evenodd" clip-rule="evenodd" d="M127.266 16C83.987 16 49 51.0625 49 94.4396C49 129.113 71.4174 158.464 102.516 168.852C106.404 169.633 107.829 167.164 107.829 165.087C107.829 163.269 107.7 157.036 107.7 150.541C85.9286 155.217 81.3949 141.191 81.3949 141.191C77.896 132.1 72.7118 129.763 72.7118 129.763C65.5859 124.958 73.2309 124.958 73.2309 124.958C81.1353 125.478 85.283 133.01 85.283 133.01C92.2791 144.957 103.553 141.581 108.088 139.503C108.735 134.438 110.81 130.932 113.013 128.984C95.6482 127.166 77.3786 120.413 77.3786 90.2831C77.3786 81.7119 80.4865 74.6994 85.4112 69.2456C84.6342 67.298 81.9123 59.2448 86.1898 48.4663C86.1898 48.4663 92.7982 46.388 107.699 56.5179C114.078 54.8009 120.657 53.9274 127.266 53.9201C133.875 53.9201 140.611 54.8301 146.832 56.5179C161.734 46.388 168.342 48.4663 168.342 48.4663C172.62 59.2448 169.896 67.298 169.119 69.2456C174.174 74.6994 177.154 81.7119 177.154 90.2831C177.154 120.413 158.884 127.035 141.39 128.984C144.241 131.451 146.702 136.126 146.702 143.529C146.702 154.047 146.574 162.49 146.574 165.086C146.574 167.164 148 169.633 151.886 168.853C182.985 158.462 205.402 129.113 205.402 94.4396C205.531 51.0625 170.415 16 127.266 16Z" fill="white"/>
</g>
<path d="M49.7234 208.309C49.6026 207.862 49.4251 207.467 49.1907 207.126C48.9563 206.778 48.6687 206.484 48.3278 206.242C47.9869 206.001 47.5962 205.82 47.1559 205.699C46.7156 205.571 46.2326 205.507 45.707 205.507C44.6488 205.507 43.7326 205.763 42.9585 206.274C42.1914 206.786 41.5984 207.531 41.1793 208.511C40.7603 209.484 40.5508 210.667 40.5508 212.059C40.5508 213.458 40.7532 214.651 41.158 215.638C41.5629 216.626 42.1488 217.379 42.9158 217.897C43.6829 218.415 44.6133 218.675 45.707 218.675C46.6729 218.675 47.4897 218.518 48.1573 218.206C48.832 217.886 49.3434 217.435 49.6914 216.853C50.0394 216.271 50.2134 215.585 50.2134 214.797L51.1935 214.914H45.8881V211.068H55.2951V213.955C55.2951 215.908 54.8796 217.581 54.0487 218.973C53.2248 220.365 52.0884 221.434 50.6396 222.18C49.1978 222.925 47.5394 223.298 45.6644 223.298C43.5835 223.298 41.7546 222.847 40.1779 221.945C38.6012 221.043 37.3725 219.758 36.4918 218.089C35.6112 216.413 35.1708 214.424 35.1708 212.123C35.1708 210.333 35.4371 208.746 35.9698 207.361C36.5025 205.969 37.2447 204.79 38.1964 203.824C39.1552 202.858 40.2631 202.126 41.5202 201.629C42.7844 201.132 44.1445 200.884 45.6005 200.884C46.8647 200.884 48.0401 201.065 49.1268 201.427C50.2205 201.789 51.1864 202.3 52.0245 202.961C52.8697 203.621 53.555 204.406 54.0806 205.315C54.6062 206.224 54.9329 207.222 55.0607 208.309H49.7234ZM59.4286 223V206.636H64.6381V223H59.4286ZM62.0387 204.729C61.3072 204.729 60.6786 204.488 60.1531 204.005C59.6275 203.515 59.3647 202.925 59.3647 202.237C59.3647 201.555 59.6275 200.972 60.1531 200.489C60.6786 199.999 61.3072 199.754 62.0387 199.754C62.7773 199.754 63.4059 199.999 63.9244 200.489C64.4499 200.972 64.7127 201.555 64.7127 202.237C64.7127 202.925 64.4499 203.515 63.9244 204.005C63.4059 204.488 62.7773 204.729 62.0387 204.729ZM77.1905 206.636V210.472H66.8674V206.636H77.1905ZM69.03 202.716H74.2395V217.854C74.2395 218.174 74.2892 218.433 74.3887 218.632C74.4952 218.824 74.6479 218.962 74.8468 219.048C75.0456 219.126 75.2836 219.165 75.5605 219.165C75.7594 219.165 75.9689 219.147 76.1891 219.112C76.4164 219.069 76.5868 219.033 76.7005 219.005L77.4888 222.766C77.2402 222.837 76.8887 222.925 76.4341 223.032C75.9867 223.138 75.4505 223.206 74.8255 223.234C73.6039 223.291 72.5563 223.149 71.6827 222.808C70.8162 222.46 70.1522 221.92 69.6905 221.189C69.236 220.457 69.0158 219.538 69.03 218.43V202.716ZM85.4096 213.668V223H80.2001V201.182H85.2392V209.641H85.4203C85.7896 208.632 86.3933 207.844 87.2314 207.276C88.0765 206.707 89.1099 206.423 90.3315 206.423C91.4821 206.423 92.4835 206.679 93.3358 207.19C94.188 207.695 94.8485 208.408 95.3173 209.332C95.7931 210.255 96.0275 211.335 96.0204 212.57V223H90.8109V213.593C90.818 212.684 90.5907 211.974 90.1291 211.462C89.6674 210.951 89.0176 210.695 88.1795 210.695C87.6326 210.695 87.1497 210.816 86.7306 211.058C86.3187 211.292 85.9956 211.629 85.7612 212.07C85.5339 212.51 85.4167 213.043 85.4096 213.668ZM109.83 215.937V206.636H115.029V223H110.064V219.953H109.894C109.532 220.955 108.914 221.75 108.04 222.339C107.174 222.922 106.126 223.213 104.897 223.213C103.782 223.213 102.802 222.957 101.957 222.446C101.112 221.935 100.455 221.221 99.9862 220.305C99.5174 219.381 99.2795 218.302 99.2724 217.066V206.636H104.482V216.043C104.489 216.931 104.723 217.631 105.185 218.142C105.647 218.653 106.275 218.909 107.071 218.909C107.589 218.909 108.054 218.795 108.466 218.568C108.885 218.334 109.216 217.996 109.457 217.556C109.706 217.109 109.83 216.569 109.83 215.937ZM118.345 223V201.182H123.554V209.438H123.661C123.874 208.941 124.176 208.462 124.566 208C124.964 207.538 125.468 207.162 126.079 206.871C126.697 206.572 127.436 206.423 128.295 206.423C129.431 206.423 130.493 206.722 131.48 207.318C132.475 207.915 133.277 208.835 133.888 210.077C134.499 211.32 134.804 212.904 134.804 214.829C134.804 216.683 134.509 218.234 133.92 219.484C133.338 220.734 132.549 221.672 131.555 222.297C130.568 222.922 129.47 223.234 128.263 223.234C127.439 223.234 126.725 223.099 126.122 222.83C125.518 222.56 125.01 222.205 124.598 221.764C124.193 221.324 123.881 220.852 123.661 220.347H123.501V223H118.345ZM123.448 214.818C123.448 215.699 123.565 216.466 123.799 217.119C124.041 217.773 124.385 218.281 124.833 218.643C125.287 218.998 125.83 219.175 126.463 219.175C127.102 219.175 127.645 218.998 128.093 218.643C128.54 218.281 128.877 217.773 129.105 217.119C129.339 216.466 129.456 215.699 129.456 214.818C129.456 213.937 129.339 213.174 129.105 212.528C128.877 211.881 128.54 211.381 128.093 211.026C127.652 210.67 127.109 210.493 126.463 210.493C125.823 210.493 125.28 210.667 124.833 211.015C124.385 211.363 124.041 211.86 123.799 212.506C123.565 213.153 123.448 213.923 123.448 214.818ZM138.525 223V201.182H145.897C147.609 201.182 149.008 201.491 150.094 202.109C151.188 202.719 151.998 203.547 152.523 204.591C153.049 205.635 153.312 206.8 153.312 208.085C153.312 209.371 153.049 210.539 152.523 211.59C152.005 212.641 151.202 213.479 150.116 214.104C149.029 214.722 147.637 215.031 145.94 215.031H140.656V212.688H145.854C147.026 212.688 147.967 212.485 148.678 212.08C149.388 211.675 149.903 211.129 150.222 210.44C150.549 209.744 150.712 208.959 150.712 208.085C150.712 207.212 150.549 206.43 150.222 205.741C149.903 205.053 149.384 204.513 148.667 204.122C147.95 203.724 146.998 203.526 145.812 203.526H141.167V223H138.525ZM162.042 223.384C161.005 223.384 160.064 223.188 159.219 222.798C158.374 222.4 157.703 221.828 157.206 221.082C156.708 220.33 156.46 219.42 156.46 218.355C156.46 217.418 156.645 216.658 157.014 216.075C157.383 215.486 157.877 215.024 158.495 214.69C159.113 214.357 159.794 214.108 160.54 213.945C161.293 213.774 162.049 213.639 162.809 213.54C163.804 213.412 164.61 213.316 165.228 213.252C165.853 213.181 166.307 213.064 166.591 212.901C166.882 212.737 167.028 212.453 167.028 212.048V211.963C167.028 210.912 166.74 210.095 166.165 209.513C165.597 208.93 164.734 208.639 163.576 208.639C162.376 208.639 161.435 208.902 160.753 209.428C160.071 209.953 159.592 210.514 159.315 211.111L156.929 210.259C157.355 209.264 157.923 208.49 158.633 207.936C159.35 207.375 160.132 206.984 160.977 206.764C161.829 206.537 162.667 206.423 163.491 206.423C164.017 206.423 164.62 206.487 165.302 206.615C165.991 206.736 166.655 206.988 167.294 207.371C167.941 207.755 168.477 208.334 168.903 209.108C169.329 209.882 169.542 210.919 169.542 212.219V223H167.028V220.784H166.9C166.73 221.139 166.446 221.519 166.048 221.924C165.65 222.329 165.121 222.673 164.461 222.957C163.8 223.241 162.994 223.384 162.042 223.384ZM162.426 221.125C163.42 221.125 164.258 220.93 164.94 220.539C165.629 220.148 166.147 219.644 166.495 219.026C166.85 218.408 167.028 217.759 167.028 217.077V214.776C166.922 214.903 166.687 215.021 166.325 215.127C165.97 215.227 165.558 215.315 165.089 215.393C164.627 215.464 164.176 215.528 163.736 215.585C163.303 215.635 162.951 215.678 162.681 215.713C162.028 215.798 161.417 215.937 160.849 216.129C160.288 216.313 159.833 216.594 159.485 216.97C159.145 217.339 158.974 217.844 158.974 218.483C158.974 219.357 159.297 220.017 159.944 220.464C160.597 220.905 161.424 221.125 162.426 221.125ZM180.736 229.477C179.522 229.477 178.478 229.321 177.604 229.009C176.731 228.703 176.003 228.298 175.42 227.794C174.845 227.297 174.387 226.764 174.046 226.196L176.049 224.79C176.276 225.088 176.564 225.429 176.912 225.812C177.26 226.203 177.736 226.54 178.339 226.825C178.95 227.116 179.749 227.261 180.736 227.261C182.057 227.261 183.148 226.942 184.007 226.303C184.866 225.663 185.296 224.662 185.296 223.298V219.974H185.083C184.898 220.273 184.635 220.642 184.295 221.082C183.961 221.516 183.478 221.903 182.846 222.244C182.221 222.577 181.376 222.744 180.31 222.744C178.989 222.744 177.803 222.432 176.752 221.807C175.708 221.182 174.881 220.273 174.27 219.08C173.666 217.886 173.364 216.437 173.364 214.733C173.364 213.057 173.659 211.597 174.248 210.354C174.838 209.104 175.658 208.138 176.709 207.457C177.76 206.768 178.975 206.423 180.353 206.423C181.418 206.423 182.263 206.601 182.888 206.956C183.52 207.304 184.003 207.702 184.337 208.149C184.678 208.589 184.941 208.952 185.126 209.236H185.381V206.636H187.81V223.469C187.81 224.875 187.491 226.018 186.851 226.899C186.219 227.787 185.367 228.437 184.295 228.849C183.229 229.268 182.043 229.477 180.736 229.477ZM180.651 220.486C181.66 220.486 182.512 220.255 183.208 219.793C183.904 219.332 184.433 218.668 184.795 217.801C185.157 216.935 185.339 215.898 185.339 214.69C185.339 213.511 185.161 212.471 184.806 211.569C184.451 210.667 183.925 209.96 183.229 209.449C182.533 208.937 181.674 208.682 180.651 208.682C179.586 208.682 178.698 208.952 177.988 209.491C177.285 210.031 176.756 210.756 176.4 211.665C176.052 212.574 175.878 213.582 175.878 214.69C175.878 215.827 176.056 216.832 176.411 217.705C176.773 218.572 177.306 219.254 178.009 219.751C178.719 220.241 179.6 220.486 180.651 220.486ZM199.273 223.341C197.697 223.341 196.336 222.993 195.193 222.297C194.057 221.594 193.18 220.614 192.562 219.357C191.951 218.092 191.645 216.622 191.645 214.946C191.645 213.27 191.951 211.793 192.562 210.514C193.18 209.229 194.039 208.227 195.14 207.51C196.248 206.786 197.54 206.423 199.018 206.423C199.87 206.423 200.711 206.565 201.542 206.849C202.373 207.134 203.13 207.595 203.812 208.234C204.493 208.866 205.037 209.705 205.442 210.749C205.846 211.793 206.049 213.078 206.049 214.605V215.67H193.435V213.497H203.492C203.492 212.574 203.307 211.75 202.938 211.026C202.576 210.301 202.057 209.729 201.383 209.31C200.715 208.891 199.927 208.682 199.018 208.682C198.016 208.682 197.15 208.93 196.418 209.428C195.694 209.918 195.136 210.557 194.746 211.345C194.355 212.134 194.16 212.979 194.16 213.881V215.33C194.16 216.565 194.373 217.613 194.799 218.472C195.232 219.325 195.832 219.974 196.599 220.422C197.366 220.862 198.258 221.082 199.273 221.082C199.934 221.082 200.53 220.99 201.063 220.805C201.603 220.614 202.068 220.33 202.459 219.953C202.849 219.57 203.151 219.094 203.364 218.526L205.793 219.207C205.537 220.031 205.108 220.756 204.504 221.381C203.9 221.999 203.155 222.482 202.267 222.83C201.379 223.17 200.381 223.341 199.273 223.341ZM221.464 210.301L219.206 210.94C219.064 210.564 218.854 210.198 218.577 209.843C218.307 209.481 217.938 209.183 217.469 208.948C217.001 208.714 216.4 208.597 215.669 208.597C214.667 208.597 213.833 208.827 213.165 209.289C212.505 209.744 212.175 210.322 212.175 211.026C212.175 211.651 212.402 212.144 212.856 212.506C213.311 212.869 214.021 213.17 214.987 213.412L217.416 214.009C218.879 214.364 219.969 214.907 220.687 215.638C221.404 216.363 221.763 217.297 221.763 218.44C221.763 219.378 221.493 220.216 220.953 220.955C220.42 221.693 219.675 222.276 218.716 222.702C217.757 223.128 216.642 223.341 215.371 223.341C213.702 223.341 212.32 222.979 211.226 222.254C210.133 221.53 209.44 220.472 209.149 219.08L211.535 218.483C211.763 219.364 212.192 220.024 212.824 220.464C213.464 220.905 214.298 221.125 215.328 221.125C216.5 221.125 217.43 220.876 218.119 220.379C218.815 219.875 219.163 219.271 219.163 218.568C219.163 218 218.964 217.524 218.567 217.141C218.169 216.75 217.558 216.459 216.734 216.267L214.007 215.628C212.508 215.273 211.407 214.722 210.704 213.977C210.008 213.224 209.66 212.283 209.66 211.153C209.66 210.23 209.92 209.413 210.438 208.703C210.964 207.993 211.677 207.435 212.579 207.031C213.488 206.626 214.518 206.423 215.669 206.423C217.288 206.423 218.559 206.778 219.483 207.489C220.413 208.199 221.074 209.136 221.464 210.301Z" fill="white"/>
<defs>
<clipPath id="clip0_0_1">
<rect width="157" height="153" fill="white" transform="translate(49 16)"/>
</clipPath>
</defs>
</svg>

<svg xmlns="http://www.w3.org/2000/svg" width="256" height="256" fill="none"><path fill="#282828" d="M196 0H60C26.863 0 0 26.863 0 60v136c0 33.137 26.863 60 60 60h136c33.137 0 60-26.863 60-60V60c0-33.137-26.863-60-60-60"/><g clip-path="url(#clip0_0_1)"><path fill="#fff" fill-rule="evenodd" d="M127.266 16C83.987 16 49 51.063 49 94.44c0 34.673 22.417 64.024 53.516 74.412 3.888.781 5.313-1.688 5.313-3.765 0-1.818-.129-8.051-.129-14.546-21.771 4.676-26.305-9.35-26.305-9.35-3.499-9.091-8.683-11.428-8.683-11.428-7.126-4.805.519-4.805.519-4.805 7.904.52 12.052 8.052 12.052 8.052 6.996 11.947 18.27 8.571 22.805 6.493.647-5.065 2.722-8.571 4.925-10.519-17.365-1.818-35.634-8.571-35.634-38.7 0-8.572 3.108-15.585 8.032-21.038-.777-1.948-3.499-10.001.779-20.78 0 0 6.608-2.078 21.509 8.052a75.6 75.6 0 0 1 19.567-2.598c6.609 0 13.345.91 19.566 2.598 14.902-10.13 21.51-8.052 21.51-8.052 4.278 10.779 1.554 18.832.777 20.78 5.055 5.453 8.035 12.466 8.035 21.037 0 30.13-18.27 36.752-35.764 38.701 2.851 2.467 5.312 7.142 5.312 14.545 0 10.518-.128 18.961-.128 21.557 0 2.078 1.426 4.547 5.312 3.767 31.099-10.391 53.516-39.74 53.516-74.413.129-43.377-34.987-78.44-78.136-78.44" clip-rule="evenodd"/></g><path fill="#fff" d="M49.723 208.309a3.8 3.8 0 0 0-.532-1.183 3.4 3.4 0 0 0-.863-.884 3.7 3.7 0 0 0-1.172-.543 5.2 5.2 0 0 0-1.449-.192q-1.587 0-2.748.767-1.151.768-1.78 2.237-.628 1.46-.628 3.548 0 2.099.607 3.579.607 1.482 1.758 2.259 1.15.778 2.791.778 1.45 0 2.45-.469 1.012-.48 1.534-1.353t.522-2.056l.98.117h-5.305v-3.846h9.407v2.887q0 2.93-1.246 5.018a8.3 8.3 0 0 1-3.41 3.207q-2.162 1.118-4.975 1.118-3.121 0-5.486-1.353t-3.686-3.856q-1.32-2.514-1.321-5.966 0-2.685.799-4.762.799-2.088 2.226-3.537a9.6 9.6 0 0 1 3.324-2.195q1.896-.745 4.08-.745 1.897 0 3.527.543a9.4 9.4 0 0 1 2.898 1.534 8.1 8.1 0 0 1 2.056 2.354q.788 1.364.98 2.994zM59.43 223v-16.364h5.21V223zm2.61-18.271a2.7 2.7 0 0 1-1.886-.724q-.788-.736-.788-1.768 0-1.023.788-1.748a2.67 2.67 0 0 1 1.886-.735q1.107 0 1.885.735.789.725.789 1.748 0 1.032-.789 1.768-.777.724-1.885.724m15.151 1.907v3.836H66.868v-3.836zm-8.16-3.92h5.21v15.138q0 .48.149.778.16.288.458.416.299.117.714.117.297 0 .628-.053.34-.065.512-.107l.788 3.761q-.373.106-1.055.266a9 9 0 0 1-1.608.202q-1.833.085-3.143-.426-1.3-.522-1.993-1.619-.681-1.097-.66-2.759zm16.38 10.952V223H80.2v-21.818h5.04v8.459h.18q.554-1.513 1.811-2.365 1.269-.853 3.1-.853 1.727 0 3.005.767 1.279.757 1.981 2.142.714 1.385.703 3.238V223h-5.21v-9.407q.011-1.363-.68-2.131-.694-.767-1.95-.767-.82 0-1.45.363a2.46 2.46 0 0 0-.969 1.012q-.34.66-.351 1.598m24.42 2.269v-9.301h5.199V223h-4.965v-3.047h-.17a4.75 4.75 0 0 1-1.854 2.386q-1.3.874-3.143.874-1.672 0-2.94-.767a5.23 5.23 0 0 1-1.97-2.141q-.704-1.385-.715-3.239v-10.43h5.21v9.407q.01 1.332.703 2.099t1.886.767q.777 0 1.395-.341.629-.352.991-1.012.373-.67.373-1.619m8.515 7.063v-21.818h5.209v8.256h.107a5.7 5.7 0 0 1 .905-1.438 4.5 4.5 0 0 1 1.513-1.129q.927-.448 2.216-.448 1.704 0 3.185.895 1.492.896 2.408 2.759.916 1.865.916 4.752 0 2.78-.884 4.655-.873 1.875-2.365 2.813-1.481.937-3.292.937-1.236 0-2.141-.404a4.7 4.7 0 0 1-1.524-1.066 5.1 5.1 0 0 1-.937-1.417h-.16V223zm5.103-8.182q0 1.321.351 2.301.363.981 1.034 1.524.68.532 1.63.532.958 0 1.63-.532.67-.543 1.012-1.524.351-.98.351-2.301t-.351-2.29q-.342-.97-1.012-1.502-.661-.534-1.63-.533-.96 0-1.63.522-.671.522-1.034 1.491-.351.97-.351 2.312M138.525 223v-21.818h7.372q2.568 0 4.197.927 1.641.915 2.429 2.482.789 1.566.789 3.494t-.789 3.505q-.778 1.576-2.407 2.514-1.63.927-4.176.927h-5.284v-2.343h5.198q1.758 0 2.824-.608 1.065-.607 1.544-1.64.49-1.044.49-2.355t-.49-2.344q-.479-1.032-1.555-1.619-1.076-.597-2.855-.596h-4.645V223zm23.517.384q-1.556 0-2.823-.586a4.85 4.85 0 0 1-2.013-1.716q-.746-1.129-.746-2.727 0-1.406.554-2.28a3.9 3.9 0 0 1 1.481-1.385 7.8 7.8 0 0 1 2.045-.745 25 25 0 0 1 2.269-.405 103 103 0 0 1 2.419-.288q.937-.107 1.363-.351.437-.246.437-.853v-.085q0-1.577-.863-2.45-.852-.874-2.589-.874-1.8 0-2.823.789-1.023.788-1.438 1.683l-2.386-.852q.639-1.492 1.704-2.323a6.4 6.4 0 0 1 2.344-1.172 9.7 9.7 0 0 1 2.514-.341q.788 0 1.811.192a5.8 5.8 0 0 1 1.992.756q.97.576 1.609 1.737t.639 3.111V223h-2.514v-2.216h-.128q-.255.532-.852 1.14t-1.587 1.033q-.991.426-2.419.427m.384-2.259q1.491 0 2.514-.586 1.033-.586 1.555-1.513a3.85 3.85 0 0 0 .533-1.949v-2.301q-.16.191-.703.351-.532.15-1.236.266a58 58 0 0 1-1.353.192q-.65.075-1.055.128a9.6 9.6 0 0 0-1.832.416q-.842.276-1.364.841-.51.554-.511 1.513 0 1.31.97 1.981.98.661 2.482.661m18.31 8.352q-1.821 0-3.132-.468-1.31-.459-2.184-1.215a6.7 6.7 0 0 1-1.374-1.598l2.003-1.406q.34.447.863 1.022.522.586 1.427 1.013.916.436 2.397.436 1.982 0 3.271-.958 1.289-.96 1.289-3.005v-3.324h-.213a14 14 0 0 1-.788 1.108q-.501.65-1.449 1.162-.937.5-2.536.5-1.982 0-3.558-.937-1.566-.938-2.482-2.727-.906-1.791-.906-4.347 0-2.514.884-4.379.885-1.875 2.461-2.897 1.577-1.034 3.644-1.034 1.597 0 2.535.533.948.522 1.449 1.193.512.66.789 1.087h.255v-2.6h2.429v16.833q0 2.109-.959 3.43-.948 1.332-2.556 1.95-1.599.628-3.559.628m-.085-8.991q1.513 0 2.557-.693 1.044-.692 1.587-1.992.544-1.299.544-3.111 0-1.768-.533-3.121t-1.577-2.12-2.578-.767q-1.598 0-2.663.809-1.054.81-1.588 2.174-.522 1.363-.522 3.025 0 1.706.533 3.015.543 1.3 1.598 2.046 1.065.735 2.642.735m18.622 2.855q-2.365 0-4.08-1.044-1.704-1.055-2.631-2.94-.917-1.897-.917-4.411t.917-4.432q.927-1.928 2.578-3.004 1.661-1.087 3.878-1.087 1.278 0 2.524.426a6.3 6.3 0 0 1 2.27 1.385q1.022.948 1.63 2.515.607 1.566.607 3.856v1.065h-12.614v-2.173h10.057q0-1.385-.554-2.471a4.2 4.2 0 0 0-1.555-1.716q-1.002-.628-2.365-.628-1.502 0-2.6.746a4.9 4.9 0 0 0-1.672 1.917 5.6 5.6 0 0 0-.586 2.536v1.449q0 1.853.639 3.142.65 1.279 1.8 1.95 1.151.66 2.674.66.991 0 1.79-.277a3.8 3.8 0 0 0 1.396-.852q.585-.575.905-1.427l2.429.681a5.4 5.4 0 0 1-1.289 2.174q-.905.927-2.237 1.449-1.332.51-2.994.511m22.191-13.04-2.258.639a4.2 4.2 0 0 0-.629-1.097q-.405-.543-1.108-.895-.703-.351-1.8-.351-1.503 0-2.504.692-.99.682-.99 1.737 0 .937.681 1.48.682.544 2.131.906l2.429.597q2.194.532 3.271 1.629 1.076 1.087 1.076 2.802 0 1.407-.81 2.515-.799 1.107-2.237 1.747-1.439.639-3.345.639-2.504 0-4.145-1.087t-2.077-3.174l2.386-.597q.342 1.321 1.289 1.981.96.661 2.504.661 1.758 0 2.791-.746 1.044-.756 1.044-1.811 0-.852-.596-1.427-.597-.586-1.833-.874l-2.727-.639q-2.249-.533-3.303-1.651-1.044-1.13-1.044-2.824 0-1.385.778-2.45.789-1.065 2.141-1.672 1.363-.608 3.09-.608 2.428 0 3.814 1.066 1.395 1.065 1.981 2.812"/><defs><clipPath id="clip0_0_1"><path fill="#fff" d="M49 16h157v153H49z"/></clipPath></defs></svg>
